icons/workplaces/mitre10.svg

<svg enable-background="new 0 0 84 84" viewBox="0 0 84 84" xmlns="http://www.w3.org/2000/svg" xmlns:xlink="http://www.w3.org/1999/xlink"><clipPath id="a"><path d="m0 0h84v84h-84z"/></clipPath><g clip-path="url(#a)"><path d="m0 .1h84v84h-84z" fill="#111"/><g transform="translate(5 36.001)"><g fill="#fff"><path d="m16.5.2h-3.5c-.6 0-1.1.3-1.3.9l-2.2 4.8v-5.6h-3.2c-.6-.1-1.1.3-1.3.8l-5 11.1h3.4l3.4-7.4v7.4h3l3.6-7.4v7.4h3.1z"/><path d="m21.5.2h-2c-.6 0-1.2.5-1.2 1.2v10.8h3.1z"/><path d="m31 2.9v-2.7h-7.1c-.6 0-1.1.5-1.1 1.2v1.5h2.6v9.3h3.1v-9.3z"/><path d="m46.2 9.5v-2h3.5v-2.7h-3.5v-2h3.7v-2.6h-5.6c-.6 0-1.1.5-1.2 1.1v10.8h6.8v-2.6z"/><path d="m41.2 3.9c0-2.6-1.8-3.7-4.1-3.7h-3.5c-.6 0-1.2.5-1.2 1.2v10.8h3.1v-4.6l2.9 4.6h3.9l-3.8-4.9c1.6-.3 2.8-1.8 2.7-3.4zm-3.3.2c0 1.3-1.1 1.5-2.2 1.5-.2 0-.3.1-.3.3v-3.3h.3c1.1 0 2.2.2 2.2 1.5"/></g><path d="m60 12.2v-12h-3.9c-.6 0-1.2.5-1.2 1.2v1.4h1.9v9.4z" fill="#ef7d00"/><path d="m74 6.2c0-1.2-.4-2.5-1.1-3.5l-2.3 2.3c.7 1.6-.1 3.5-1.8 4.2-.8.3-1.6.3-2.4 0l-1.6 1.6c-.2.2-.5.3-.8.3-.2 0-.4-.1-.6-.2 1.2 1 2.6 1.6 4.2 1.6 3.5-.1 6.4-2.9 6.4-6.3zm-2.6-4.7c.2 0 .4.1.6.2-1.2-1.1-2.7-1.7-4.3-1.7-3.5 0-6.3 2.7-6.3 6.2 0 1.3.4 2.6 1.2 3.6l2.2-2.2c-.8-1.6-.1-3.6 1.5-4.3.9-.4 1.9-.4 2.8 0l1.5-1.5c.2-.2.5-.3.8-.3" fill="#ef7d00"/></g></g></svg>

<?xml version="1.0" encoding="utf-8"?>
<!-- Generator: Adobe Illustrator 24.1.0, SVG Export Plug-In . SVG Version: 6.00 Build 0)  -->
<svg version="1.1" id="Layer_1" xmlns="http://www.w3.org/2000/svg" xmlns:xlink="http://www.w3.org/1999/xlink" x="0px" y="0px"
	 viewBox="0 0 84 84" style="enable-background:new 0 0 84 84;" xml:space="preserve">
<style type="text/css">
	.st0{clip-path:url(#SVGID_2_);}
	.st1{fill:#111111;}
	.st2{fill:#FFFFFF;}
	.st3{fill:#EF7D00;}
</style>
<g>
	<defs>
		<rect id="SVGID_1_" y="0" width="84" height="84"/>
	</defs>
	<clipPath id="SVGID_2_">
		<use xlink:href="#SVGID_1_"  style="overflow:visible;"/>
	</clipPath>
	<g id="a" class="st0">
		<rect x="0" y="0.1" class="st1" width="84" height="84"/>
		<g transform="translate(5 36.001)">
			<path class="st2" d="M16.5,0.2H13c-0.6,0-1.1,0.3-1.3,0.9L9.5,5.9l0-5.6H6.3C5.7,0.2,5.2,0.6,5,1.1l0,0L0,12.2l3.4,0l3.4-7.4
				l0,7.4h3l3.6-7.4l0,7.4h3.1L16.5,0.2z"/>
			<path class="st2" d="M21.5,0.2h-2c-0.6,0-1.2,0.5-1.2,1.2l0,0v10.8h3.1L21.5,0.2z"/>
			<path class="st2" d="M31,2.9V0.2h-7.1c-0.6,0-1.1,0.5-1.1,1.2v1.5h2.6v9.3h3.1V2.9H31z"/>
			<path class="st2" d="M46.2,9.5V7.5h3.5V4.8h-3.5v-2h3.7V0.2h-5.6c-0.6,0-1.1,0.5-1.2,1.1l0,0v10.8h6.8V9.5L46.2,9.5L46.2,9.5z"/>
			<path class="st2" d="M41.2,3.9c0-2.6-1.8-3.7-4.1-3.7h-3.5c-0.6,0-1.2,0.5-1.2,1.2v10.8h3.1V7.6h0l2.9,4.6h3.9l-3.8-4.9
				C40.1,7,41.3,5.5,41.2,3.9L41.2,3.9z M37.9,4.1c0,1.3-1.1,1.5-2.2,1.5h0c-0.2,0-0.3,0.1-0.3,0.3c0,0,0,0,0,0V2.6h0.3
				C36.8,2.6,37.9,2.8,37.9,4.1"/>
			<path class="st3" d="M60,12.2V0.2h-3.9c-0.6,0-1.2,0.5-1.2,1.2v1.4h1.9v9.4L60,12.2L60,12.2z"/>
			<path class="st3" d="M74,6.2c0-1.2-0.4-2.5-1.1-3.5L70.6,5c0.7,1.6-0.1,3.5-1.8,4.2c-0.8,0.3-1.6,0.3-2.4,0l-1.6,1.6l0,0
				c-0.2,0.2-0.5,0.3-0.8,0.3c-0.2,0-0.4-0.1-0.6-0.2c1.2,1,2.6,1.6,4.2,1.6C71.1,12.4,74,9.6,74,6.2C74,6.2,74,6.2,74,6.2
				 M71.4,1.5c0.2,0,0.4,0.1,0.6,0.2C70.8,0.6,69.3,0,67.7,0c-3.5,0-6.3,2.7-6.3,6.2c0,1.3,0.4,2.6,1.2,3.6l2.2-2.2
				C64,6,64.7,4,66.3,3.3c0.9-0.4,1.9-0.4,2.8,0l1.5-1.5l0,0C70.8,1.6,71.1,1.5,71.4,1.5"/>
		</g>
	</g>
</g>
</svg>
